; generated by PrusaSlicer 2.3.3+win64 on 2021-10-15 at 00:52:48 UTC


;
;

;
;
; 

; external perimeters extrusion width = 0.40mm
; perimeters extrusion width = 0.40mm
; infill extrusion width = 0.45mm
; solid infill extrusion width = 0.45mm
; top infill extrusion width = 0.40mm
; first layer extrusion width = 0.42mm

M73 P0 R661
M201 X1250 Y1250 Z400 E5000 ; sets maximum accelerations, mm/sec^2
M203 X180 Y180 Z12 E80 ; sets maximum feedrates, mm/sec
M204 P1250 R1250 T1250 ; sets acceleration (P, T) and retract acceleration (R), mm/sec^2
M205 X8.00 Y8.00 Z2.00 E10.00 ; sets the jerk limits, mm/sec
M205 S0 T0 ; sets the minimum extruding and travel feed rate, mm/sec
M107
;TYPE:Custom
G90 ; use absolute coordinates
M83 ; extruder relative mode
M104 S170 ; set extruder temp for bed leveling
M140 S60 ; set bed temp
M109 R170 ; wait for bed leveling temp
M190 S60 ; wait for bed temp
G28 ; home all without mesh bed level
G29 ; mesh bed leveling 
M104 S215 ; set extruder temp
G92 E0.0
G1 Y-2.0 X179 F2400
G1 Z3 F720
M109 S215 ; wait for extruder temp

; intro line
G1 X170 F1000
G1 Z0.2 F720
G1 X110.0 E8.0 F900
G1 X40.0 E10.0 F700
G92 E0.0

M221 S95 ; set flow
G21 ; set units to millimeters
G90 ; use absolute coordinates
M83 ; use relative distances for extrusion
M900 K0.2 ; Filament gcode LA 1.5
; ; Filament gcode LA 1.0
;LAYER_CHANGE
;Z:0.2
;HEIGHT:0.2
;BEFORE_LAYER_CHANGE
G92 E0.0
;0.2


G1 E-3.20000 F4200.000
G1 Z0.200 F9000.000
;AFTER_LAYER_CHANGE
;0.2
G1 Z0.400
G1 X39.875 Y58.806
G1 Z0.200
G1 E3.20000 F2400.000
M204 S800
;TYPE:Skirt
;WIDTH:0.42
G1 F1200.000
G1 X40.704 Y58.456 E0.02821
G1 X41.490 Y58.355 E0.02487
G1 X138.568 Y58.355 E3.04382
G1 X139.126 Y58.416 E0.01758
G1 X139.673 Y58.581 E0.01793
G1 X140.258 Y58.891 E0.02076
G1 X140.695 Y59.245 E0.01764
G1 X141.076 Y59.691 E0.01839
G1 X141.388 Y60.245 E0.01993
G1 X141.579 Y60.844 E0.01973
G1 X141.644 Y61.437 E0.01870
G1 X141.644 Y118.557 E1.79096
G1 X141.520 Y119.389 E0.02636
G1 X141.201 Y120.109 E0.02469
G1 X140.840 Y120.598 E0.01906
G1 X140.203 Y121.149 E0.02642
G1 X139.354 Y121.527 E0.02913
G1 X138.577 Y121.644 E0.02464
G1 X41.459 Y121.645 E3.04506
G1 X40.710 Y121.549 E0.02368
G1 X39.970 Y121.247 E0.02506
G1 X39.430 Y120.864 E0.02076
G1 X38.854 Y120.205 E0.02745
G1 X38.487 Y119.412 E0.02740
G1 X38.355 Y118.522 E0.02821
G1 X38.356 Y61.397 E1.79110
G1 X38.487 Y60.596 E0.02545
G1 X38.770 Y59.936 E0.02252
G1 X39.224 Y59.326 E0.02383
G1 X39.828 Y58.843 E0.02425
M204 S1250
; printing object Case_Bottom.stl id:0 copy 0
G1 E-2.24000 F4200.000
;WIPE_START
G1 F7200.000
G1 X40.704 Y58.456 E-0.53072
G1 X41.386 Y58.369 E-0.38128
;WIPE_END
G1 E-0.04800 F4200.000
G1 Z0.400 F9000.000
G1 X42.172 Y62.174
G1 Z0.200
G1 E3.20000 F2400.000
M204 S800
;TYPE:Perimeter
G1 F1200.000
G1 X137.826 Y62.172 E2.99915
M73 P0 R660
G1 X137.826 Y117.826 E1.74498
G1 X42.174 Y117.826 E2.99907
G1 X42.172 Y62.234 E1.74302
M204 S1250
G1 X41.795 Y61.797 F9000.000
M204 S800
G1 F1200.000
G1 X138.203 Y61.795 E3.02280
G1 X138.203 Y118.203 E1.76863
G1 X41.797 Y118.203 E3.02272
G1 X41.795 Y61.857 E1.76667
M204 S1250
G1 X41.418 Y61.501 F9000.000
M204 S800
;TYPE:External perimeter
G1 F1200.000
G1 X41.457 Y61.435 E0.00240
G1 X41.519 Y61.420 E0.00200
G1 X138.501 Y61.418 E3.04081
G1 X138.545 Y61.435 E0.00147
G1 X138.580 Y61.519 E0.00285
G1 X138.580 Y118.461 E1.78539
G1 X138.567 Y118.527 E0.00211
G1 X138.540 Y118.560 E0.00133
G1 X138.481 Y118.580 E0.00196
G1 X41.545 Y118.580 E3.03935
G1 X41.452 Y118.553 E0.00303
G1 X41.420 Y118.463 E0.00298
G1 X41.418 Y61.561 E1.78414
M204 S1250
G1 X41.493 Y61.488 F9000.000
G1 E-2.24000 F4200.000
;WIPE_START
G1 F7200.000
G1 X41.457 Y61.435 E-0.07302
G1 X41.519 Y61.420 E-0.03542
G1 X42.969 Y61.420 E-0.80356
;WIPE_END
G1 E-0.04800 F4200.000
G1 Z0.400 F9000.000
G1 X136.950 Y62.285
G1 Z0.200
G1 E3.20000 F2400.000
M204 S800
;TYPE:Solid infill
;WIDTH:0.420028
G1 F1200.000
G1 X137.543 Y62.878 E0.02628
G1 X137.543 Y63.411 E0.01672
G1 X136.587 Y62.455 E0.04240
G1 X136.053 Y62.455 E0.01672
G1 X137.543 Y63.945 E0.06605
G1 X137.543 Y64.478 E0.01672
G1 X135.520 Y62.455 E0.08970
G1 X134.987 Y62.455 E0.01672
G1 X137.543 Y65.011 E0.11335
G1 X137.543 Y65.545 E0.01672
G1 X134.453 Y62.455 E0.13700
G1 X133.920 Y62.455 E0.01672
G1 X137.543 Y66.078 E0.16065
G1 X137.543 Y66.611 E0.01672
G1 X133.387 Y62.455 E0.18430
G1 X132.853 Y62.455 E0.01672
G1 X137.543 Y67.145 E0.20795
G1 X137.543 Y67.678 E0.01672
G1 X132.320 Y62.455 E0.23160
G1 X131.787 Y62.455 E0.01672
G1 X137.543 Y68.211 E0.25525
G1 X137.543 Y68.744 E0.01672
G1 X131.254 Y62.455 E0.27890
G1 X130.720 Y62.455 E0.01672
G1 X137.543 Y69.278 E0.30255
G1 X137.543 Y69.811 E0.01672
G1 X130.187 Y62.455 E0.32619
G1 X129.654 Y62.455 E0.01672
G1 X137.543 Y70.344 E0.34984
G1 X137.543 Y70.878 E0.01672
G1 X129.120 Y62.455 E0.37349
G1 X128.587 Y62.455 E0.01672
G1 X137.543 Y71.411 E0.39714
G1 X137.543 Y71.944 E0.01672
G1 X128.054 Y62.455 E0.42079
G1 X127.520 Y62.455 E0.01672
G1 X137.543 Y72.478 E0.44444
G1 X137.543 Y73.011 E0.01672
G1 X126.987 Y62.455 E0.46809
G1 X126.454 Y62.455 E0.01672
G1 X137.543 Y73.544 E0.49174
G1 X137.543 Y74.078 E0.01672
G1 X125.921 Y62.455 E0.51539
G1 X125.387 Y62.455 E0.01672
G1 X137.543 Y74.611 E0.53904
G1 X137.543 Y75.144 E0.01672
G1 X124.854 Y62.455 E0.56269
G1 X124.321 Y62.455 E0.01672
G1 X137.543 Y75.678 E0.58634
G1 X137.543 Y76.211 E0.01672
G1 X123.787 Y62.455 E0.60998
G1 X123.254 Y62.455 E0.01672
G1 X137.543 Y76.744 E0.63363
M73 P0 R659
G1 X137.543 Y77.277 E0.01672
G1 X122.721 Y62.455 E0.65728
G1 X122.187 Y62.455 E0.01672
G1 X137.543 Y77.811 E0.68093
G1 X137.543 Y78.344 E0.01672
G1 X121.654 Y62.455 E0.70458
G1 X121.121 Y62.455 E0.01672
G1 X137.543 Y78.877 E0.72823
G1 X137.543 Y79.411 E0.01672
G1 X120.588 Y62.455 E0.75188
G1 X120.054 Y62.455 E0.01672
G1 X137.543 Y79.944 E0.77553
G1 X137.543 Y80.477 E0.01672
G1 X119.521 Y62.456 E0.79918
G1 X118.988 Y62.456 E0.01672
G1 X137.543 Y81.011 E0.82283
G1 X137.543 Y81.544 E0.01672
G1 X118.454 Y62.456 E0.84648
G1 X117.921 Y62.456 E0.01672
G1 X137.543 Y82.077 E0.87013
G1 X137.543 Y82.611 E0.01672
G1 X117.388 Y62.456 E0.89377
G1 X116.854 Y62.456 E0.01672
G1 X137.543 Y83.144 E0.91742
G1 X137.543 Y83.677 E0.01672
G1 X116.321 Y62.456 E0.94107
G1 X115.788 Y62.456 E0.01672
G1 X137.543 Y84.211 E0.96472
G1 X137.543 Y84.744 E0.01672
G1 X115.255 Y62.456 E0.98837
G1 X114.721 Y62.456 E0.01672
G1 X137.543 Y85.277 E1.01202
G1 X137.543 Y85.810 E0.01672
G1 X114.188 Y62.456 E1.03567
G1 X113.655 Y62.456 E0.01672
G1 X137.543 Y86.344 E1.05932
G1 X137.543 Y86.877 E0.01672
G1 X113.121 Y62.456 E1.08297
G1 X112.588 Y62.456 E0.01672
G1 X137.543 Y87.410 E1.10662
G1 X137.543 Y87.944 E0.01672
G1 X112.055 Y62.456 E1.13027
G1 X111.521 Y62.456 E0.01672
G1 X137.543 Y88.477 E1.15392
G1 X137.543 Y89.010 E0.01672
G1 X110.988 Y62.456 E1.17756
G1 X110.455 Y62.456 E0.01672
G1 X137.543 Y89.544 E1.20121
G1 X137.543 Y90.077 E0.01672
G1 X109.922 Y62.456 E1.22486
G1 X109.388 Y62.456 E0.01672
G1 X137.543 Y90.610 E1.24851
G1 X137.543 Y91.144 E0.01672
G1 X108.855 Y62.456 E1.27216
G1 X108.322 Y62.456 E0.01672
G1 X137.543 Y91.677 E1.29581
G1 X137.543 Y92.210 E0.01672
G1 X107.788 Y62.456 E1.31946
G1 X107.255 Y62.456 E0.01672
G1 X137.543 Y92.743 E1.34311
G1 X137.543 Y93.277 E0.01672
G1 X106.722 Y62.456 E1.36676
G1 X106.188 Y62.456 E0.01672
G1 X137.543 Y93.810 E1.39041
G1 X137.543 Y94.343 E0.01672
G1 X105.655 Y62.456 E1.41406
G1 X105.122 Y62.456 E0.01672
G1 X137.543 Y94.877 E1.43771
G1 X137.543 Y95.410 E0.01672
G1 X104.589 Y62.456 E1.46135
M73 P0 R658
G1 X104.055 Y62.456 E0.01672
G1 X137.543 Y95.943 E1.48500
G1 X137.543 Y96.477 E0.01672
G1 X103.522 Y62.456 E1.50865
G1 X102.989 Y62.456 E0.01672
G1 X137.543 Y97.010 E1.53230
G1 X137.543 Y97.543 E0.01672
G1 X102.455 Y62.456 E1.55595
G1 X101.922 Y62.456 E0.01672
G1 X137.543 Y98.077 E1.57960
G1 X137.543 Y98.610 E0.01672
G1 X101.389 Y62.456 E1.60325
G1 X100.855 Y62.456 E0.01672
G1 X137.543 Y99.143 E1.62690
G1 X137.543 Y99.677 E0.01672
G1 X100.322 Y62.456 E1.65055
G1 X99.789 Y62.456 E0.01672
G1 X137.543 Y100.210 E1.67420
G1 X137.543 Y100.743 E0.01672
G1 X99.256 Y62.456 E1.69785
G1 X98.722 Y62.456 E0.01672
G1 X137.543 Y101.276 E1.72150
G1 X137.543 Y101.810 E0.01672
G1 X98.189 Y62.456 E1.74514
G1 X97.656 Y62.456 E0.01672
G1 X137.543 Y102.343 E1.76879
G1 X137.543 Y102.876 E0.01672
G1 X97.122 Y62.456 E1.79244
G1 X96.589 Y62.456 E0.01672
G1 X137.543 Y103.410 E1.81609
G1 X137.543 Y103.943 E0.01672
G1 X96.056 Y62.456 E1.83974
G1 X95.522 Y62.456 E0.01672
G1 X137.543 Y104.476 E1.86339
G1 X137.543 Y105.010 E0.01672
G1 X94.989 Y62.456 E1.88704
G1 X94.456 Y62.456 E0.01672
G1 X137.543 Y105.543 E1.91069
G1 X137.543 Y106.076 E0.01672
G1 X93.923 Y62.456 E1.93434
G1 X93.389 Y62.456 E0.01672
G1 X137.543 Y106.610 E1.95799
G1 X137.543 Y107.143 E0.01672
G1 X92.856 Y62.456 E1.98164
M73 P0 R657
G1 X92.323 Y62.456 E0.01672
G1 X137.543 Y107.676 E2.00529
G1 X137.543 Y108.210 E0.01672
G1 X91.789 Y62.456 E2.02893
G1 X91.256 Y62.456 E0.01672
G1 X137.543 Y108.743 E2.05258
G1 X137.543 Y109.276 E0.01672
G1 X90.723 Y62.456 E2.07623
G1 X90.189 Y62.456 E0.01672
G1 X137.543 Y109.809 E2.09988
G1 X137.543 Y110.343 E0.01672
G1 X89.656 Y62.456 E2.12353
G1 X89.123 Y62.456 E0.01672
G1 X137.543 Y110.876 E2.14718
G1 X137.543 Y111.409 E0.01672
G1 X88.590 Y62.456 E2.17083
G1 X88.056 Y62.456 E0.01672
G1 X137.543 Y111.943 E2.19448
G1 X137.543 Y112.476 E0.01672
G1 X87.523 Y62.456 E2.21813
G1 X86.990 Y62.456 E0.01672
G1 X137.543 Y113.009 E2.24178
G1 X137.543 Y113.543 E0.01672
G1 X86.456 Y62.456 E2.26543
G1 X85.923 Y62.456 E0.01672
G1 X137.543 Y114.076 E2.28908
G1 X137.543 Y114.609 E0.01672
G1 X85.390 Y62.456 E2.31272
G1 X84.856 Y62.456 E0.01672
G1 X137.543 Y115.143 E2.33637
G1 X137.543 Y115.676 E0.01672
G1 X84.323 Y62.456 E2.36002
G1 X83.790 Y62.456 E0.01672
G1 X137.543 Y116.209 E2.38367
M73 P0 R656
G1 X137.543 Y116.742 E0.01672
G1 X83.257 Y62.456 E2.40732
G1 X82.723 Y62.456 E0.01672
G1 X137.543 Y117.276 E2.43097
G1 X137.543 Y117.543 E0.00838
G1 X137.277 Y117.543 E0.00834
G1 X82.190 Y62.456 E2.44283
G1 X81.657 Y62.456 E0.01672
G1 X136.744 Y117.543 E2.44283
G1 X136.210 Y117.543 E0.01672
G1 X81.123 Y62.456 E2.44283
G1 X80.590 Y62.456 E0.01672
G1 X135.677 Y117.543 E2.44283
G1 X135.144 Y117.543 E0.01672
G1 X80.057 Y62.456 E2.44283
G1 X79.523 Y62.456 E0.01672
G1 X134.610 Y117.543 E2.44282
G1 X134.077 Y117.543 E0.01672
G1 X78.990 Y62.456 E2.44282
G1 X78.457 Y62.456 E0.01672
G1 X133.544 Y117.543 E2.44282
G1 X133.010 Y117.543 E0.01672
G1 X77.924 Y62.456 E2.44282
G1 X77.390 Y62.456 E0.01672
G1 X132.477 Y117.543 E2.44282
G1 X131.944 Y117.543 E0.01672
G1 X76.857 Y62.456 E2.44282
G1 X76.324 Y62.456 E0.01672
G1 X131.410 Y117.543 E2.44282
G1 X130.877 Y117.543 E0.01672
G1 X75.790 Y62.456 E2.44282
M73 P0 R655
G1 X75.257 Y62.456 E0.01672
G1 X130.344 Y117.543 E2.44282
G1 X129.810 Y117.543 E0.01672
G1 X74.724 Y62.456 E2.44282
G1 X74.190 Y62.457 E0.01672
G1 X129.277 Y117.543 E2.44282
G1 X128.744 Y117.543 E0.01672
G1 X73.657 Y62.457 E2.44282
G1 X73.124 Y62.457 E0.01672
G1 X128.211 Y117.543 E2.44282
G1 X127.677 Y117.543 E0.01672
G1 X72.591 Y62.457 E2.44282
G1 X72.057 Y62.457 E0.01672
G1 X127.144 Y117.543 E2.44282
G1 X126.611 Y117.543 E0.01672
G1 X71.524 Y62.457 E2.44281
G1 X70.991 Y62.457 E0.01672
G1 X126.077 Y117.543 E2.44281
G1 X125.544 Y117.543 E0.01672
G1 X70.457 Y62.457 E2.44281
G1 X69.924 Y62.457 E0.01672
G1 X125.011 Y117.543 E2.44281
G1 X124.477 Y117.543 E0.01672
G1 X69.391 Y62.457 E2.44281
G1 X68.857 Y62.457 E0.01672
G1 X123.944 Y117.543 E2.44281
G1 X123.411 Y117.543 E0.01672
G1 X68.324 Y62.457 E2.44281
G1 X67.791 Y62.457 E0.01672
G1 X122.877 Y117.543 E2.44281
M73 P0 R654
G1 X122.344 Y117.543 E0.01672
G1 X67.258 Y62.457 E2.44281
M73 P1 R654
G1 X66.724 Y62.457 E0.01672
G1 X121.811 Y117.543 E2.44281
G1 X121.277 Y117.543 E0.01672
G1 X66.191 Y62.457 E2.44281
G1 X65.658 Y62.457 E0.01672
G1 X120.744 Y117.543 E2.44281
G1 X120.211 Y117.543 E0.01672
G1 X65.124 Y62.457 E2.44281
G1 X64.591 Y62.457 E0.01672
G1 X119.677 Y117.543 E2.44281
G1 X119.144 Y117.543 E0.01672
G1 X64.058 Y62.457 E2.44281
G1 X63.525 Y62.457 E0.01672
G1 X118.611 Y117.543 E2.44281
G1 X118.078 Y117.543 E0.01672
G1 X62.991 Y62.457 E2.44280
G1 X62.458 Y62.457 E0.01672
G1 X117.544 Y117.543 E2.44280
G1 X117.011 Y117.543 E0.01672
G1 X61.925 Y62.457 E2.44280
G1 X61.391 Y62.457 E0.01672
G1 X116.478 Y117.543 E2.44280
G1 X115.944 Y117.543 E0.01672
G1 X60.858 Y62.457 E2.44280
G1 X60.325 Y62.457 E0.01672
G1 X115.411 Y117.543 E2.44280
G1 X114.878 Y117.543 E0.01672
G1 X59.791 Y62.457 E2.44280
M73 P1 R653
G1 X59.258 Y62.457 E0.01672
G1 X114.344 Y117.543 E2.44280
G1 X113.811 Y117.543 E0.01672
G1 X58.725 Y62.457 E2.44280
G1 X58.192 Y62.457 E0.01672
G1 X113.278 Y117.543 E2.44280
G1 X112.744 Y117.543 E0.01672
G1 X57.658 Y62.457 E2.44280
G1 X57.125 Y62.457 E0.01672
G1 X112.211 Y117.543 E2.44280
G1 X111.678 Y117.543 E0.01672
G1 X56.592 Y62.457 E2.44280
G1 X56.058 Y62.457 E0.01672
G1 X111.144 Y117.543 E2.44280
G1 X110.611 Y117.543 E0.01672
G1 X55.525 Y62.457 E2.44280
G1 X54.992 Y62.457 E0.01672
G1 X110.078 Y117.543 E2.44280
G1 X109.545 Y117.543 E0.01672
G1 X54.458 Y62.457 E2.44279
G1 X53.925 Y62.457 E0.01672
G1 X109.011 Y117.543 E2.44279
G1 X108.478 Y117.543 E0.01672
G1 X53.392 Y62.457 E2.44279
G1 X52.859 Y62.457 E0.01672
G1 X107.945 Y117.543 E2.44279
G1 X107.411 Y117.543 E0.01672
G1 X52.325 Y62.457 E2.44279
G1 X51.792 Y62.457 E0.01672
G1 X106.878 Y117.543 E2.44279
G1 X106.345 Y117.543 E0.01672
G1 X51.259 Y62.457 E2.44279
M73 P1 R652
G1 X50.725 Y62.457 E0.01672
G1 X105.811 Y117.543 E2.44279
G1 X105.278 Y117.543 E0.01672
G1 X50.192 Y62.457 E2.44279
G1 X49.659 Y62.457 E0.01672
G1 X104.745 Y117.543 E2.44279
G1 X104.211 Y117.543 E0.01672
G1 X49.125 Y62.457 E2.44279
G1 X48.592 Y62.457 E0.01672
G1 X103.678 Y117.543 E2.44279
G1 X103.145 Y117.543 E0.01672
G1 X48.059 Y62.457 E2.44279
G1 X47.526 Y62.457 E0.01672
G1 X102.611 Y117.543 E2.44279
G1 X102.078 Y117.543 E0.01672
G1 X46.992 Y62.457 E2.44279
G1 X46.459 Y62.457 E0.01672
G1 X101.545 Y117.543 E2.44279
G1 X101.012 Y117.543 E0.01672
G1 X45.926 Y62.457 E2.44278
G1 X45.392 Y62.457 E0.01672
G1 X100.478 Y117.543 E2.44278
G1 X99.945 Y117.543 E0.01672
G1 X44.859 Y62.457 E2.44278
G1 X44.326 Y62.457 E0.01672
G1 X99.412 Y117.543 E2.44278
G1 X98.878 Y117.543 E0.01672
G1 X43.792 Y62.457 E2.44278
G1 X43.259 Y62.457 E0.01672
G1 X98.345 Y117.543 E2.44278
M73 P1 R651
G1 X97.812 Y117.543 E0.01672
G1 X42.726 Y62.457 E2.44278
G1 X42.455 Y62.457 E0.00850
G1 X42.455 Y62.719 E0.00822
G1 X97.278 Y117.543 E2.43116
G1 X96.745 Y117.543 E0.01672
G1 X42.455 Y63.253 E2.40750
G1 X42.455 Y63.786 E0.01672
G1 X96.212 Y117.543 E2.38385
G1 X95.678 Y117.543 E0.01672
G1 X42.455 Y64.319 E2.36020
G1 X42.455 Y64.853 E0.01672
G1 X95.145 Y117.543 E2.33655
G1 X94.612 Y117.543 E0.01672
G1 X42.455 Y65.386 E2.31290
G1 X42.455 Y65.919 E0.01672
G1 X94.078 Y117.543 E2.28925
G1 X93.545 Y117.543 E0.01672
G1 X42.455 Y66.453 E2.26560
G1 X42.455 Y66.986 E0.01672
G1 X93.012 Y117.543 E2.24195
G1 X92.478 Y117.543 E0.01672
G1 X42.455 Y67.519 E2.21830
G1 X42.455 Y68.053 E0.01672
G1 X91.945 Y117.543 E2.19465
G1 X91.412 Y117.543 E0.01672
G1 X42.455 Y68.586 E2.17100
G1 X42.455 Y69.119 E0.01672
G1 X90.879 Y117.543 E2.14734
G1 X90.345 Y117.543 E0.01672
G1 X42.455 Y69.653 E2.12369
G1 X42.455 Y70.186 E0.01672
G1 X89.812 Y117.543 E2.10004
M73 P1 R650
G1 X89.279 Y117.543 E0.01672
G1 X42.455 Y70.719 E2.07639
G1 X42.455 Y71.253 E0.01672
G1 X88.745 Y117.543 E2.05274
G1 X88.212 Y117.543 E0.01672
G1 X42.455 Y71.786 E2.02909
G1 X42.455 Y72.319 E0.01672
G1 X87.679 Y117.543 E2.00544
G1 X87.145 Y117.543 E0.01672
G1 X42.455 Y72.853 E1.98179
G1 X42.455 Y73.386 E0.01672
G1 X86.612 Y117.543 E1.95814
G1 X86.079 Y117.543 E0.01672
G1 X42.455 Y73.919 E1.93449
G1 X42.455 Y74.453 E0.01672
G1 X85.545 Y117.543 E1.91084
G1 X85.012 Y117.543 E0.01672
G1 X42.455 Y74.986 E1.88718
G1 X42.455 Y75.519 E0.01672
G1 X84.479 Y117.543 E1.86353
G1 X83.945 Y117.543 E0.01672
G1 X42.455 Y76.053 E1.83988
G1 X42.455 Y76.586 E0.01672
G1 X83.412 Y117.543 E1.81623
G1 X82.879 Y117.543 E0.01672
G1 X42.455 Y77.119 E1.79258
G1 X42.455 Y77.653 E0.01672
