; generated by PrusaSlicer 2.3.3+win64 on 2021-10-11 at 01:44:37 UTC


;
;

;
;
; 

; external perimeters extrusion width = 0.40mm
; perimeters extrusion width = 0.40mm
; infill extrusion width = 0.45mm
; solid infill extrusion width = 0.45mm
; top infill extrusion width = 0.40mm
; support material extrusion width = 0.35mm
; first layer extrusion width = 0.42mm

M73 P0 R216
M201 X1250 Y1250 Z400 E5000 ; sets maximum accelerations, mm/sec^2
M203 X180 Y180 Z12 E80 ; sets maximum feedrates, mm/sec
M204 P1250 R1250 T1250 ; sets acceleration (P, T) and retract acceleration (R), mm/sec^2
M205 X8.00 Y8.00 Z2.00 E10.00 ; sets the jerk limits, mm/sec
M205 S0 T0 ; sets the minimum extruding and travel feed rate, mm/sec
M107
;TYPE:Custom
G90 ; use absolute coordinates
M83 ; extruder relative mode
M104 S170 ; set extruder temp for bed leveling
M140 S105 ; set bed temp
M109 R170 ; wait for bed leveling temp
M190 S105 ; wait for bed temp
G28 ; home all without mesh bed level
G29 ; mesh bed leveling 
M104 S215 ; set extruder temp
G92 E0.0
G1 Y-2.0 X179 F2400
G1 Z3 F720
M109 S215 ; wait for extruder temp

; intro line
G1 X170 F1000
G1 Z0.2 F720
G1 X110.0 E8.0 F900
G1 X40.0 E10.0 F700
G92 E0.0

M221 S95 ; set flow
G21 ; set units to millimeters
G90 ; use absolute coordinates
M83 ; use relative distances for extrusion
M900 K0.2 ; Filament gcode LA 1.5
; ; Filament gcode LA 1.0
;LAYER_CHANGE
;Z:0.2
;HEIGHT:0.2
;BEFORE_LAYER_CHANGE
G92 E0.0
;0.2


G1 E-3.20000 F4200.000
G1 Z0.200 F7200.000
;AFTER_LAYER_CHANGE
;0.2
G1 Z0.400
G1 X39.799 Y58.688
G1 Z0.200
G1 E3.20000 F2400.000
M204 S800
;TYPE:Skirt
;WIDTH:0.42
G1 F1200.000
G1 X40.580 Y58.348 E0.02671
G1 X41.491 Y58.215 E0.02886
G1 X138.504 Y58.215 E3.04178
G1 X139.194 Y58.290 E0.02177
G1 X139.824 Y58.495 E0.02076
G1 X140.257 Y58.725 E0.01538
G1 X140.784 Y59.140 E0.02103
G1 X141.237 Y59.688 E0.02230
G1 X141.502 Y60.168 E0.01718
G1 X141.706 Y60.788 E0.02047
G1 X141.785 Y61.418 E0.01991
G1 X141.784 Y118.565 E1.79180
G1 X141.669 Y119.363 E0.02527
G1 X141.311 Y120.197 E0.02846
G1 X140.839 Y120.806 E0.02417
G1 X140.186 Y121.318 E0.02602
G1 X139.436 Y121.651 E0.02573
G1 X138.595 Y121.784 E0.02669
G1 X89.254 Y122.974 E1.54752
G1 X39.414 Y122.804 E1.56270
G1 X38.839 Y122.719 E0.01823
G1 X38.298 Y122.495 E0.01835
G1 X37.829 Y122.145 E0.01835
G1 X37.459 Y121.692 E0.01835
G1 X37.190 Y121.097 E0.02048
G1 X37.094 Y120.451 E0.02048
G1 X37.096 Y87.527 E1.03229
G1 X38.225 Y61.256 E0.82447
G1 X38.359 Y60.538 E0.02292
G1 X38.681 Y59.814 E0.02483
G1 X39.126 Y59.229 E0.02307
G1 X39.752 Y58.726 E0.02517
M204 S1250
; printing object Case_top.stl id:0 copy 0
G1 E-2.24000 F4200.000
;WIPE_START
G1 F5760.000
G1 X40.580 Y58.348 E-0.63021
G1 X40.982 Y58.289 E-0.28179
;WIPE_END
G1 E-0.04800 F4200.000
G1 Z0.400 F7200.000
G1 X39.471 Y87.615
G1 Z0.200
G1 E3.20000 F2400.000
M204 S800
;TYPE:Support material
G1 F1200.000
G1 X39.471 Y120.427 E1.02881
G1 X40.226 Y120.427 E0.02365
G1 X40.226 Y87.785 E1.02349
G1 X40.582 Y87.785 E0.01117
G1 X40.582 Y118.520 E0.96370
G1 X40.646 Y118.855 E0.01069
G1 X40.689 Y118.942 E0.00305
G1 X40.901 Y119.202 E0.01049
G1 X40.980 Y119.264 E0.00315
G1 X40.980 Y120.427 E0.03647
G1 X41.734 Y120.427 E0.02365
G1 X41.734 Y119.418 E0.03164
G1 X42.488 Y119.418 E0.02365
G1 X42.488 Y120.427 E0.03164
G1 X43.242 Y120.427 E0.02365
G1 X43.242 Y119.418 E0.03164
G1 X43.996 Y119.418 E0.02365
G1 X43.996 Y120.427 E0.03164
G1 X44.750 Y120.427 E0.02365
G1 X44.750 Y119.418 E0.03164
G1 X45.505 Y119.418 E0.02365
G1 X45.505 Y120.427 E0.03164
G1 X46.259 Y120.427 E0.02365
G1 X46.259 Y119.418 E0.03164
G1 X47.013 Y119.418 E0.02365
G1 X47.013 Y120.427 E0.03164
G1 X47.767 Y120.427 E0.02365
G1 X47.767 Y119.418 E0.03164
G1 X48.521 Y119.418 E0.02365
G1 X48.521 Y120.427 E0.03164
G1 X49.275 Y120.427 E0.02365
G1 X49.275 Y119.418 E0.03164
G1 X50.030 Y119.418 E0.02365
G1 X50.030 Y120.427 E0.03164
G1 X50.784 Y120.427 E0.02365
G1 X50.784 Y119.418 E0.03164
G1 X51.538 Y119.418 E0.02365
G1 X51.538 Y120.427 E0.03164
G1 X52.292 Y120.427 E0.02365
G1 X52.292 Y119.418 E0.03164
G1 X53.046 Y119.418 E0.02365
G1 X53.046 Y120.427 E0.03164
G1 X53.800 Y120.427 E0.02365
G1 X53.800 Y119.418 E0.03164
G1 X54.555 Y119.418 E0.02365
G1 X54.555 Y120.427 E0.03164
G1 X55.309 Y120.427 E0.02365
G1 X55.309 Y119.418 E0.03164
G1 X56.063 Y119.418 E0.02365
G1 X56.063 Y120.427 E0.03164
G1 X56.817 Y120.427 E0.02365
G1 X56.817 Y119.418 E0.03164
G1 X57.571 Y119.418 E0.02365
G1 X57.571 Y120.427 E0.03164
G1 X58.325 Y120.427 E0.02365
G1 X58.325 Y119.418 E0.03164
G1 X59.079 Y119.418 E0.02365
G1 X59.079 Y120.427 E0.03164
G1 X59.834 Y120.427 E0.02365
G1 X59.834 Y119.418 E0.03164
G1 X60.588 Y119.418 E0.02365
G1 X60.588 Y120.427 E0.03164
G1 X61.342 Y120.427 E0.02365
G1 X61.342 Y119.418 E0.03164
G1 X62.096 Y119.418 E0.02365
G1 X62.096 Y120.427 E0.03164
G1 X62.850 Y120.427 E0.02365
G1 X62.850 Y119.418 E0.03164
G1 X63.604 Y119.418 E0.02365
G1 X63.604 Y120.427 E0.03164
G1 X64.359 Y120.427 E0.02365
G1 X64.359 Y119.418 E0.03164
G1 X65.113 Y119.418 E0.02365
G1 X65.113 Y120.427 E0.03164
G1 X65.867 Y120.427 E0.02365
G1 X65.867 Y119.418 E0.03164
G1 X66.621 Y119.418 E0.02365
G1 X66.621 Y120.427 E0.03164
G1 X67.375 Y120.427 E0.02365
G1 X67.375 Y119.418 E0.03164
G1 X68.129 Y119.418 E0.02365
G1 X68.129 Y120.427 E0.03164
G1 X68.884 Y120.427 E0.02365
G1 X68.884 Y119.418 E0.03164
G1 X69.638 Y119.418 E0.02365
G1 X69.638 Y120.427 E0.03164
G1 X70.392 Y120.427 E0.02365
G1 X70.392 Y119.418 E0.03164
G1 X71.146 Y119.418 E0.02365
G1 X71.146 Y120.427 E0.03164
G1 X71.900 Y120.427 E0.02365
G1 X71.900 Y119.418 E0.03164
G1 X72.654 Y119.418 E0.02365
G1 X72.654 Y120.427 E0.03164
G1 X73.408 Y120.427 E0.02365
G1 X73.408 Y119.418 E0.03164
G1 X74.163 Y119.418 E0.02365
G1 X74.163 Y120.427 E0.03164
G1 X74.917 Y120.427 E0.02365
G1 X74.917 Y119.418 E0.03164
G1 X75.671 Y119.418 E0.02365
G1 X75.671 Y120.427 E0.03164
G1 X76.425 Y120.427 E0.02365
G1 X76.425 Y119.418 E0.03164
G1 X77.179 Y119.418 E0.02365
G1 X77.179 Y120.427 E0.03164
G1 X77.933 Y120.427 E0.02365
G1 X77.933 Y119.418 E0.03164
G1 X78.688 Y119.418 E0.02365
G1 X78.688 Y120.427 E0.03164
G1 X79.442 Y120.427 E0.02365
G1 X79.442 Y119.418 E0.03164
G1 X80.196 Y119.418 E0.02365
G1 X80.196 Y120.427 E0.03164
G1 X80.950 Y120.427 E0.02365
G1 X80.950 Y119.418 E0.03164
G1 X81.704 Y119.418 E0.02365
G1 X81.704 Y120.427 E0.03164
G1 X82.458 Y120.427 E0.02365
G1 X82.458 Y119.418 E0.03164
G1 X83.213 Y119.418 E0.02365
G1 X83.213 Y120.427 E0.03164
G1 X83.967 Y120.427 E0.02365
G1 X83.967 Y119.418 E0.03164
G1 X84.721 Y119.418 E0.02365
G1 X84.721 Y120.427 E0.03164
G1 X85.475 Y120.427 E0.02365
G1 X85.475 Y119.418 E0.03164
G1 X86.229 Y119.418 E0.02365
G1 X86.229 Y120.427 E0.03164
G1 X86.983 Y120.427 E0.02365
G1 X86.983 Y119.418 E0.03164
G1 X87.738 Y119.418 E0.02365
G1 X87.738 Y120.427 E0.03164
G1 X88.492 Y120.427 E0.02365
G1 X88.492 Y119.418 E0.03164
G1 X89.246 Y119.418 E0.02365
G1 X89.246 Y120.597 E0.03696
M204 S1250
G1 E-2.24000 F4200.000
;WIPE_START
G1 F5760.000
G1 X89.246 Y119.418 E-0.81649
G1 X89.108 Y119.418 E-0.09551
;WIPE_END
G1 E-0.04800 F4200.000
G1 Z0.400 F7200.000
G1 X86.229 Y117.597
G1 Z0.200
G1 E3.20000 F2400.000
M204 S800
G1 F1200.000
G1 X86.229 Y114.266 E0.10445
G1 X85.475 Y114.266 E0.02365
G1 X85.475 Y117.427 E0.09913
G1 X84.721 Y117.427 E0.02365
G1 X84.721 Y114.266 E0.09913
G1 X83.967 Y114.266 E0.02365
G1 X83.967 Y117.427 E0.09913
G1 X83.213 Y117.427 E0.02365
G1 X83.213 Y114.266 E0.09913
M73 P0 R215
G1 X82.458 Y114.266 E0.02365
G1 X82.458 Y117.427 E0.09913
G1 X81.704 Y117.427 E0.02365
G1 X81.704 Y114.266 E0.09913
G1 X80.950 Y114.266 E0.02365
G1 X80.950 Y117.427 E0.09913
G1 X80.196 Y117.427 E0.02365
G1 X80.196 Y114.266 E0.09913
G1 X79.442 Y114.266 E0.02365
G1 X79.442 Y117.427 E0.09913
G1 X78.688 Y117.427 E0.02365
G1 X78.688 Y114.266 E0.09913
G1 X77.933 Y114.266 E0.02365
G1 X77.933 Y117.427 E0.09913
G1 X77.179 Y117.427 E0.02365
G1 X77.179 Y114.266 E0.09913
G1 X76.425 Y114.266 E0.02365
G1 X76.425 Y117.427 E0.09913
G1 X75.671 Y117.427 E0.02365
G1 X75.671 Y114.266 E0.09913
G1 X74.917 Y114.266 E0.02365
G1 X74.917 Y117.427 E0.09913
G1 X74.163 Y117.427 E0.02365
G1 X74.163 Y114.266 E0.09913
G1 X73.409 Y114.266 E0.02365
G1 X73.409 Y117.427 E0.09913
G1 X72.654 Y117.427 E0.02365
G1 X72.654 Y114.266 E0.09913
G1 X71.900 Y114.266 E0.02365
G1 X71.900 Y117.427 E0.09913
G1 X71.146 Y117.427 E0.02365
G1 X71.146 Y114.266 E0.09913
G1 X70.392 Y114.266 E0.02365
G1 X70.392 Y117.427 E0.09913
G1 X69.638 Y117.427 E0.02365
G1 X69.638 Y114.266 E0.09913
G1 X68.884 Y114.266 E0.02365
G1 X68.884 Y117.427 E0.09913
G1 X68.129 Y117.427 E0.02365
G1 X68.129 Y114.266 E0.09913
G1 X67.375 Y114.266 E0.02365
G1 X67.375 Y117.427 E0.09913
G1 X66.621 Y117.427 E0.02365
G1 X66.621 Y114.266 E0.09913
G1 X65.867 Y114.266 E0.02365
G1 X65.867 Y117.427 E0.09913
G1 X65.113 Y117.427 E0.02365
G1 X65.113 Y114.266 E0.09913
G1 X64.359 Y114.266 E0.02365
G1 X64.359 Y117.427 E0.09913
G1 X63.604 Y117.427 E0.02365
G1 X63.604 Y114.266 E0.09913
G1 X62.850 Y114.266 E0.02365
G1 X62.850 Y117.427 E0.09913
G1 X62.096 Y117.427 E0.02365
G1 X62.096 Y114.266 E0.09913
G1 X61.342 Y114.266 E0.02365
G1 X61.342 Y117.427 E0.09913
G1 X60.588 Y117.427 E0.02365
G1 X60.588 Y114.266 E0.09913
G1 X59.834 Y114.266 E0.02365
G1 X59.834 Y117.427 E0.09913
G1 X59.079 Y117.427 E0.02365
G1 X59.079 Y114.266 E0.09913
G1 X58.325 Y114.266 E0.02365
G1 X58.325 Y117.427 E0.09913
G1 X57.571 Y117.427 E0.02365
G1 X57.571 Y114.266 E0.09913
G1 X56.817 Y114.266 E0.02365
G1 X56.817 Y117.427 E0.09913
G1 X56.063 Y117.427 E0.02365
G1 X56.063 Y114.266 E0.09913
G1 X55.309 Y114.266 E0.02365
G1 X55.309 Y117.427 E0.09913
G1 X54.555 Y117.427 E0.02365
G1 X54.555 Y114.266 E0.09913
G1 X53.800 Y114.266 E0.02365
G1 X53.800 Y117.427 E0.09913
G1 X53.046 Y117.427 E0.02365
G1 X53.046 Y114.266 E0.09913
G1 X52.292 Y114.266 E0.02365
G1 X52.292 Y117.427 E0.09913
G1 X51.538 Y117.427 E0.02365
G1 X51.538 Y114.266 E0.09913
G1 X50.784 Y114.266 E0.02365
G1 X50.784 Y117.427 E0.09913
G1 X50.030 Y117.427 E0.02365
G1 X50.030 Y114.266 E0.09913
G1 X49.275 Y114.266 E0.02365
G1 X49.275 Y117.427 E0.09913
G1 X48.521 Y117.427 E0.02365
G1 X48.521 Y114.266 E0.09913
G1 X47.767 Y114.266 E0.02365
G1 X47.767 Y117.427 E0.09913
G1 X47.013 Y117.427 E0.02365
G1 X47.013 Y114.266 E0.09913
G1 X46.259 Y114.266 E0.02365
G1 X46.259 Y117.427 E0.09913
G1 X45.505 Y117.427 E0.02365
G1 X45.505 Y90.784 E0.83537
G1 X44.750 Y90.784 E0.02365
G1 X44.750 Y117.427 E0.83537
G1 X43.996 Y117.427 E0.02365
G1 X43.996 Y90.784 E0.83537
G1 X43.242 Y90.784 E0.02365
G1 X43.242 Y117.427 E0.83537
G1 X42.488 Y117.427 E0.02365
G1 X42.488 Y90.615 E0.84069
M204 S1250
G1 E-2.24000 F4200.000
;WIPE_START
G1 F5760.000
G1 X42.488 Y91.931 E-0.91200
;WIPE_END
G1 E-0.04800 F4200.000
G1 Z0.400 F7200.000
G1 X87.314 Y89.946
G1 Z0.200
G1 E3.20000 F2400.000
M204 S800
;TYPE:External perimeter
G1 F1200.000
G1 X87.314 Y116.358 E0.82813
G1 X87.278 Y118.234 E0.05884
G1 X43.403 Y118.234 E1.37569
G1 X42.896 Y118.228 E0.01590
G1 X42.382 Y118.193 E0.01615
G1 X41.646 Y118.086 E0.02332
G1 X41.646 Y90.133 E0.87644
G1 X42.376 Y89.998 E0.02329
G1 X42.894 Y89.954 E0.01631
G1 X43.903 Y89.946 E0.03163
G1 X87.254 Y89.946 E1.35924
M204 S1250
G1 X87.714 Y89.946 F7200.000
G1 E-2.24000 F4200.000
;WIPE_START
G1 F5760.000
G1 X87.257 Y91.262 E-0.91200
;WIPE_END
G1 E-0.04800 F4200.000
G1 Z0.400 F7200.000
G1 X91.713 Y65.287
G1 Z0.200
G1 E3.20000 F2400.000
M204 S800
;TYPE:Perimeter
G1 F1200.000
G1 X91.713 Y61.959 E0.10434
G1 X128.287 Y61.959 E1.14676
G1 X128.287 Y65.287 E0.10434
G1 X91.773 Y65.287 E1.14488
M204 S1250
G1 X92.090 Y64.910 F7200.000
M204 S800
;TYPE:External perimeter
G1 F1200.000
G1 X92.090 Y62.336 E0.08069
G1 X127.910 Y62.336 E1.12311
G1 X127.910 Y64.910 E0.08069
G1 X92.150 Y64.910 E1.12123
M204 S1250
G1 X91.690 Y64.920 F7200.000
G1 E-2.24000 F4200.000
;WIPE_START
G1 F5760.000
G1 X92.119 Y63.594 E-0.91200
;WIPE_END
G1 E-0.04800 F4200.000
G1 Z0.400 F7200.000
G1 X51.713 Y61.959
G1 Z0.200
G1 E3.20000 F2400.000
M204 S800
;TYPE:Perimeter
G1 F1200.000
G1 X88.287 Y61.959 E1.14676
G1 X88.287 Y65.287 E0.10434
G1 X51.713 Y65.287 E1.14676
G1 X51.713 Y62.019 E0.10246
M204 S1250
G1 X52.090 Y62.336 F7200.000
M204 S800
;TYPE:External perimeter
G1 F1200.000
G1 X87.910 Y62.336 E1.12311
G1 X87.910 Y64.910 E0.08069
G1 X52.090 Y64.910 E1.12311
G1 X52.090 Y62.396 E0.07881
M204 S1250
G1 X51.898 Y61.985 F7200.000
G1 E-2.24000 F4200.000
;WIPE_START
G1 F5760.000
G1 X53.407 Y62.394 E-0.91200
;WIPE_END
G1 E-0.04800 F4200.000
G1 Z0.400 F7200.000
G1 X96.130 Y83.870
G1 Z0.200
G1 E3.20000 F2400.000
M204 S800
;TYPE:Perimeter
G1 F1200.000
G1 X96.209 Y83.974 E0.00408
G1 X96.209 Y82.399 E0.04937
G1 X96.274 Y81.904 E0.01567
G1 X96.504 Y81.348 E0.01886
G1 X96.870 Y80.870 E0.01886
G1 X97.365 Y80.491 E0.01955
G1 X97.960 Y80.267 E0.01993
G1 X98.500 Y80.195 E0.01708
G1 X99.096 Y80.274 E0.01886
G1 X99.652 Y80.504 E0.01886
G1 X100.130 Y80.870 E0.01886
G1 X100.209 Y80.974 E0.00408
G1 X100.209 Y79.399 E0.04937
G1 X100.274 Y78.904 E0.01567
G1 X100.504 Y78.348 E0.01886
G1 X100.870 Y77.870 E0.01886
G1 X101.365 Y77.491 E0.01955
G1 X101.960 Y77.267 E0.01993
G1 X102.500 Y77.195 E0.01708
G1 X103.096 Y77.274 E0.01886
G1 X103.471 Y77.429 E0.01270
G1 X103.504 Y77.348 E0.00276
G1 X103.870 Y76.870 E0.01886
G1 X104.365 Y76.491 E0.01955
G1 X104.960 Y76.267 E0.01993
G1 X105.500 Y76.195 E0.01708
G1 X106.096 Y76.274 E0.01886
G1 X106.652 Y76.504 E0.01886
G1 X107.130 Y76.870 E0.01886
G1 X107.470 Y77.314 E0.01753
G1 X107.533 Y76.839 E0.01503
G1 X107.788 Y76.223 E0.02091
G1 X108.194 Y75.694 E0.02091
G1 X108.738 Y75.276 E0.02151
G1 X109.395 Y75.025 E0.02206
G1 X110.000 Y74.945 E0.01912
G1 X110.661 Y75.033 E0.02091
G1 X111.277 Y75.288 E0.02091
G1 X111.806 Y75.694 E0.02091
G1 X112.212 Y76.223 E0.02091
G1 X112.467 Y76.839 E0.02091
G1 X112.530 Y77.314 E0.01503
G1 X112.870 Y76.870 E0.01753
G1 X113.365 Y76.491 E0.01955
G1 X113.960 Y76.267 E0.01993
G1 X114.500 Y76.195 E0.01708
G1 X115.096 Y76.274 E0.01886
G1 X115.652 Y76.504 E0.01886
G1 X116.130 Y76.870 E0.01886
G1 X116.496 Y77.348 E0.01886
G1 X116.529 Y77.429 E0.00276
G1 X116.960 Y77.267 E0.01443
G1 X117.500 Y77.195 E0.01708
G1 X118.096 Y77.274 E0.01886
G1 X118.652 Y77.504 E0.01886
G1 X119.130 Y77.870 E0.01886
G1 X119.496 Y78.348 E0.01886
G1 X119.726 Y78.904 E0.01886
G1 X119.791 Y79.399 E0.01567
G1 X119.791 Y80.974 E0.04937
G1 X119.870 Y80.870 E0.00408
G1 X120.365 Y80.491 E0.01955
G1 X120.960 Y80.267 E0.01993
G1 X121.500 Y80.195 E0.01708
G1 X122.096 Y80.274 E0.01886
G1 X122.652 Y80.504 E0.01886
G1 X123.130 Y80.870 E0.01886
G1 X123.496 Y81.348 E0.01886
G1 X123.726 Y81.904 E0.01886
G1 X123.791 Y82.399 E0.01567
G1 X123.791 Y83.974 E0.04937
G1 X123.870 Y83.870 E0.00408
G1 X124.365 Y83.491 E0.01955
G1 X124.960 Y83.267 E0.01993
G1 X125.500 Y83.195 E0.01708
G1 X126.096 Y83.274 E0.01886
G1 X126.652 Y83.504 E0.01886
G1 X127.130 Y83.870 E0.01886
G1 X127.496 Y84.348 E0.01886
G1 X127.726 Y84.904 E0.01886
G1 X127.791 Y85.399 E0.01567
G1 X127.791 Y94.601 E0.28852
G1 X127.726 Y95.096 E0.01567
G1 X127.496 Y95.652 E0.01886
G1 X127.130 Y96.130 E0.01886
G1 X126.652 Y96.496 E0.01886
G1 X126.096 Y96.726 E0.01886
G1 X125.500 Y96.805 E0.01886
G1 X124.904 Y96.726 E0.01886
G1 X124.348 Y96.496 E0.01886
G1 X123.870 Y96.130 E0.01886
G1 X123.791 Y96.026 E0.00408
G1 X123.791 Y97.601 E0.04937
G1 X123.726 Y98.096 E0.01567
G1 X123.496 Y98.652 E0.01886
G1 X123.116 Y99.147 E0.01955
G1 X122.600 Y99.518 E0.01993
G1 X122.096 Y99.726 E0.01708
G1 X121.500 Y99.805 E0.01886
G1 X120.904 Y99.726 E0.01886
G1 X120.348 Y99.496 E0.01886
G1 X119.870 Y99.130 E0.01886
G1 X119.791 Y99.026 E0.00408
G1 X119.791 Y100.601 E0.04937
G1 X119.726 Y101.096 E0.01567
G1 X119.496 Y101.652 E0.01886
G1 X119.116 Y102.147 E0.01955
G1 X118.600 Y102.518 E0.01993
G1 X118.096 Y102.726 E0.01708
G1 X117.500 Y102.805 E0.01886
G1 X116.904 Y102.726 E0.01886
G1 X116.529 Y102.571 E0.01270
G1 X116.496 Y102.652 E0.00276
G1 X116.116 Y103.147 E0.01955
G1 X115.600 Y103.518 E0.01993
G1 X115.096 Y103.726 E0.01708
G1 X114.500 Y103.805 E0.01886
G1 X113.904 Y103.726 E0.01886
G1 X113.348 Y103.496 E0.01886
G1 X112.870 Y103.130 E0.01886
G1 X112.534 Y102.691 E0.01735
