; generated by PrusaSlicer 2.3.3+win64 on 2021-10-11 at 01:43:00 UTC


;
;

;
;
; 

; external perimeters extrusion width = 0.40mm
; perimeters extrusion width = 0.40mm
; infill extrusion width = 0.45mm
; solid infill extrusion width = 0.45mm
; top infill extrusion width = 0.40mm
; support material extrusion width = 0.35mm
; first layer extrusion width = 0.42mm

M73 P0 R234
M201 X1250 Y1250 Z400 E5000 ; sets maximum accelerations, mm/sec^2
M203 X180 Y180 Z12 E80 ; sets maximum feedrates, mm/sec
M204 P1250 R1250 T1250 ; sets acceleration (P, T) and retract acceleration (R), mm/sec^2
M205 X8.00 Y8.00 Z2.00 E10.00 ; sets the jerk limits, mm/sec
M205 S0 T0 ; sets the minimum extruding and travel feed rate, mm/sec
M107
;TYPE:Custom
G90 ; use absolute coordinates
M83 ; extruder relative mode
M104 S170 ; set extruder temp for bed leveling
M140 S105 ; set bed temp
M109 R170 ; wait for bed leveling temp
M190 S105 ; wait for bed temp
G28 ; home all without mesh bed level
G29 ; mesh bed leveling 
M104 S215 ; set extruder temp
G92 E0.0
G1 Y-2.0 X179 F2400
G1 Z3 F720
M109 S215 ; wait for extruder temp

; intro line
G1 X170 F1000
G1 Z0.2 F720
G1 X110.0 E8.0 F900
G1 X40.0 E10.0 F700
G92 E0.0

M221 S95 ; set flow
G21 ; set units to millimeters
G90 ; use absolute coordinates
M83 ; use relative distances for extrusion
M900 K0.2 ; Filament gcode LA 1.5
; ; Filament gcode LA 1.0
;LAYER_CHANGE
;Z:0.2
;HEIGHT:0.2
;BEFORE_LAYER_CHANGE
G92 E0.0
;0.2


G1 E-3.20000 F4200.000
G1 Z0.200 F7200.000
;AFTER_LAYER_CHANGE
;0.2
G1 Z0.400
G1 X40.579 Y58.345
G1 Z0.200
G1 E3.20000 F2400.000
M204 S800
;TYPE:Skirt
;WIDTH:0.42
G1 F1200.000
G1 X41.488 Y58.215 E0.02880
G1 X138.504 Y58.215 E3.04187
G1 X139.186 Y58.288 E0.02150
G1 X139.679 Y58.436 E0.01614
G1 X140.247 Y58.717 E0.01987
G1 X140.835 Y59.191 E0.02369
G1 X141.201 Y59.634 E0.01803
G1 X141.555 Y60.291 E0.02339
G1 X141.731 Y60.914 E0.02029
G1 X141.784 Y61.435 E0.01641
G1 X141.784 Y118.561 E1.79116
G1 X141.680 Y119.326 E0.02422
G1 X141.360 Y120.114 E0.02666
G1 X140.872 Y120.776 E0.02580
G1 X140.207 Y121.309 E0.02671
G1 X139.402 Y121.661 E0.02756
G1 X138.510 Y121.785 E0.02821
G1 X41.464 Y121.786 E3.04282
M73 P0 R233
G1 X40.624 Y121.666 E0.02661
G1 X39.868 Y121.351 E0.02569
G1 X39.178 Y120.822 E0.02724
G1 X38.682 Y120.191 E0.02518
G1 X38.325 Y119.339 E0.02895
G1 X38.215 Y118.518 E0.02599
G1 X38.216 Y61.454 E1.78918
G1 X38.331 Y60.629 E0.02613
G1 X38.647 Y59.867 E0.02588
G1 X39.194 Y59.162 E0.02795
G1 X39.815 Y58.682 E0.02464
G1 X40.524 Y58.369 E0.02427
M204 S1250
; printing object Case_bottom.stl id:0 copy 0
G1 E-2.24000 F4200.000
;WIPE_START
G1 F5760.000
G1 X41.488 Y58.215 E-0.67635
G1 X41.828 Y58.215 E-0.23565
;WIPE_END
G1 E-0.04800 F4200.000
G1 Z0.400 F7200.000
G1 X42.549 Y62.551
G1 Z0.200
G1 E3.20000 F2400.000
M204 S800
;TYPE:Perimeter
G1 F1200.000
G1 X137.448 Y62.549 E2.97551
G1 X137.448 Y117.449 E1.72134
G1 X42.551 Y117.448 E2.97543
G1 X42.549 Y62.611 E1.71938
M204 S1250
G1 X42.172 Y62.174 F7200.000
M204 S800
G1 F1200.000
G1 X137.826 Y62.172 E2.99915
G1 X137.826 Y117.826 E1.74498
G1 X42.174 Y117.826 E2.99907
G1 X42.172 Y62.234 E1.74302
M204 S1250
G1 X41.795 Y61.797 F7200.000
M204 S800
G1 F1200.000
G1 X138.203 Y61.795 E3.02280
G1 X138.203 Y118.203 E1.76863
G1 X41.797 Y118.203 E3.02272
G1 X41.795 Y61.857 E1.76667
M204 S1250
G1 X41.418 Y61.501 F7200.000
M204 S800
;TYPE:External perimeter
G1 F1200.000
G1 X41.457 Y61.435 E0.00240
G1 X41.519 Y61.420 E0.00200
G1 X138.501 Y61.418 E3.04081
G1 X138.545 Y61.435 E0.00147
G1 X138.580 Y61.519 E0.00285
G1 X138.580 Y118.461 E1.78539
G1 X138.567 Y118.527 E0.00211
G1 X138.540 Y118.560 E0.00133
G1 X138.481 Y118.580 E0.00196
G1 X41.545 Y118.580 E3.03935
M73 P0 R232
G1 X41.452 Y118.553 E0.00303
G1 X41.420 Y118.463 E0.00298
G1 X41.418 Y61.561 E1.78414
M204 S1250
G1 X41.493 Y61.488 F7200.000
G1 E-2.24000 F4200.000
;WIPE_START
G1 F5760.000
G1 X41.457 Y61.435 E-0.09128
G1 X41.519 Y61.420 E-0.04427
G1 X42.640 Y61.420 E-0.77645
;WIPE_END
G1 E-0.04800 F4200.000
G1 Z0.400 F7200.000
G1 X136.573 Y62.663
G1 Z0.200
G1 E3.20000 F2400.000
M204 S800
;TYPE:Solid infill
;WIDTH:0.42026
G1 F1200.000
G1 X137.166 Y63.256 E0.02632
G1 X137.166 Y63.789 E0.01674
G1 X136.209 Y62.832 E0.04247
G1 X135.675 Y62.832 E0.01674
G1 X137.166 Y64.323 E0.06615
G1 X137.166 Y64.857 E0.01674
G1 X135.141 Y62.832 E0.08982
G1 X134.608 Y62.832 E0.01674
G1 X137.166 Y65.390 E0.11350
G1 X137.166 Y65.924 E0.01674
G1 X134.074 Y62.832 E0.13718
G1 X133.540 Y62.832 E0.01674
G1 X137.166 Y66.457 E0.16086
G1 X137.166 Y66.991 E0.01674
G1 X133.007 Y62.832 E0.18454
G1 X132.473 Y62.832 E0.01674
G1 X137.166 Y67.525 E0.20822
G1 X137.166 Y68.058 E0.01674
G1 X131.940 Y62.832 E0.23189
G1 X131.406 Y62.832 E0.01674
G1 X137.166 Y68.592 E0.25557
G1 X137.166 Y69.126 E0.01674
G1 X130.872 Y62.832 E0.27925
G1 X130.339 Y62.832 E0.01674
G1 X137.166 Y69.659 E0.30293
G1 X137.166 Y70.193 E0.01674
G1 X129.805 Y62.832 E0.32661
G1 X129.271 Y62.832 E0.01674
G1 X137.166 Y70.727 E0.35028
G1 X137.166 Y71.260 E0.01674
G1 X128.738 Y62.832 E0.37396
G1 X128.204 Y62.832 E0.01674
G1 X137.166 Y71.794 E0.39764
G1 X137.166 Y72.328 E0.01674
G1 X127.671 Y62.832 E0.42132
G1 X127.137 Y62.832 E0.01674
G1 X137.166 Y72.861 E0.44500
G1 X137.166 Y73.395 E0.01674
G1 X126.603 Y62.832 E0.46868
G1 X126.070 Y62.832 E0.01674
G1 X137.166 Y73.928 E0.49235
G1 X137.166 Y74.462 E0.01674
G1 X125.536 Y62.832 E0.51603
G1 X125.002 Y62.832 E0.01674
G1 X137.166 Y74.996 E0.53971
G1 X137.166 Y75.529 E0.01674
G1 X124.469 Y62.832 E0.56339
G1 X123.935 Y62.832 E0.01674
G1 X137.166 Y76.063 E0.58707
G1 X137.166 Y76.597 E0.01674
G1 X123.402 Y62.832 E0.61075
G1 X122.868 Y62.833 E0.01674
G1 X137.166 Y77.130 E0.63442
G1 X137.166 Y77.664 E0.01674
G1 X122.334 Y62.833 E0.65810
G1 X121.801 Y62.833 E0.01674
G1 X137.166 Y78.198 E0.68178
G1 X137.166 Y78.731 E0.01674
G1 X121.267 Y62.833 E0.70546
G1 X120.733 Y62.833 E0.01674
G1 X137.166 Y79.265 E0.72914
G1 X137.166 Y79.798 E0.01674
G1 X120.200 Y62.833 E0.75282
G1 X119.666 Y62.833 E0.01674
G1 X137.166 Y80.332 E0.77649
G1 X137.166 Y80.866 E0.01674
G1 X119.133 Y62.833 E0.80017
G1 X118.599 Y62.833 E0.01674
G1 X137.166 Y81.399 E0.82385
G1 X137.166 Y81.933 E0.01674
G1 X118.065 Y62.833 E0.84753
G1 X117.532 Y62.833 E0.01674
G1 X137.166 Y82.467 E0.87121
G1 X137.166 Y83.000 E0.01674
G1 X116.998 Y62.833 E0.89489
G1 X116.464 Y62.833 E0.01674
G1 X137.166 Y83.534 E0.91856
G1 X137.166 Y84.068 E0.01674
G1 X115.931 Y62.833 E0.94224
G1 X115.397 Y62.833 E0.01674
G1 X137.166 Y84.601 E0.96592
G1 X137.166 Y85.135 E0.01674
G1 X114.864 Y62.833 E0.98960
G1 X114.330 Y62.833 E0.01674
G1 X137.166 Y85.668 E1.01328
G1 X137.166 Y86.202 E0.01674
G1 X113.796 Y62.833 E1.03695
G1 X113.263 Y62.833 E0.01674
G1 X137.166 Y86.736 E1.06063
G1 X137.166 Y87.269 E0.01674
G1 X112.729 Y62.833 E1.08431
G1 X112.195 Y62.833 E0.01674
G1 X137.166 Y87.803 E1.10799
G1 X137.166 Y88.337 E0.01674
G1 X111.662 Y62.833 E1.13167
M73 P1 R232
G1 X111.128 Y62.833 E0.01674
G1 X137.166 Y88.870 E1.15535
G1 X137.166 Y89.404 E0.01674
G1 X110.595 Y62.833 E1.17902
G1 X110.061 Y62.833 E0.01674
G1 X137.166 Y89.938 E1.20270
G1 X137.166 Y90.471 E0.01674
G1 X109.527 Y62.833 E1.22638
G1 X108.994 Y62.833 E0.01674
G1 X137.166 Y91.005 E1.25006
M73 P1 R231
G1 X137.166 Y91.539 E0.01674
G1 X108.460 Y62.833 E1.27374
G1 X107.926 Y62.833 E0.01674
G1 X137.166 Y92.072 E1.29742
G1 X137.166 Y92.606 E0.01674
G1 X107.393 Y62.833 E1.32109
G1 X106.859 Y62.833 E0.01674
G1 X137.166 Y93.139 E1.34477
G1 X137.166 Y93.673 E0.01674
G1 X106.325 Y62.833 E1.36845
G1 X105.792 Y62.833 E0.01674
G1 X137.166 Y94.207 E1.39213
G1 X137.166 Y94.740 E0.01674
G1 X105.258 Y62.833 E1.41581
G1 X104.725 Y62.833 E0.01674
G1 X137.166 Y95.274 E1.43949
G1 X137.166 Y95.808 E0.01674
G1 X104.191 Y62.833 E1.46316
G1 X103.657 Y62.833 E0.01674
G1 X137.166 Y96.341 E1.48684
G1 X137.166 Y96.875 E0.01674
G1 X103.124 Y62.833 E1.51052
G1 X102.590 Y62.833 E0.01674
G1 X137.166 Y97.409 E1.53420
G1 X137.166 Y97.942 E0.01674
G1 X102.056 Y62.833 E1.55788
G1 X101.523 Y62.833 E0.01674
G1 X137.166 Y98.476 E1.58156
G1 X137.166 Y99.009 E0.01674
G1 X100.989 Y62.833 E1.60523
G1 X100.456 Y62.833 E0.01674
G1 X137.166 Y99.543 E1.62891
G1 X137.166 Y100.077 E0.01674
G1 X99.922 Y62.833 E1.65259
G1 X99.388 Y62.833 E0.01674
G1 X137.166 Y100.610 E1.67627
G1 X137.166 Y101.144 E0.01674
G1 X98.855 Y62.833 E1.69995
G1 X98.321 Y62.833 E0.01674
G1 X137.166 Y101.678 E1.72362
G1 X137.166 Y102.211 E0.01674
G1 X97.787 Y62.833 E1.74730
G1 X97.254 Y62.833 E0.01674
G1 X137.166 Y102.745 E1.77098
G1 X137.166 Y103.279 E0.01674
G1 X96.720 Y62.833 E1.79466
G1 X96.187 Y62.833 E0.01674
G1 X137.166 Y103.812 E1.81834
M73 P1 R230
G1 X137.166 Y104.346 E0.01674
G1 X95.653 Y62.833 E1.84202
G1 X95.119 Y62.833 E0.01674
G1 X137.166 Y104.880 E1.86569
G1 X137.166 Y105.413 E0.01674
G1 X94.586 Y62.833 E1.88937
G1 X94.052 Y62.833 E0.01674
G1 X137.166 Y105.947 E1.91305
G1 X137.166 Y106.480 E0.01674
G1 X93.518 Y62.833 E1.93673
G1 X92.985 Y62.833 E0.01674
G1 X137.166 Y107.014 E1.96041
G1 X137.166 Y107.548 E0.01674
G1 X92.451 Y62.833 E1.98409
G1 X91.918 Y62.833 E0.01674
G1 X137.166 Y108.081 E2.00776
G1 X137.166 Y108.615 E0.01674
G1 X91.384 Y62.833 E2.03144
G1 X90.850 Y62.833 E0.01674
G1 X137.166 Y109.149 E2.05512
G1 X137.166 Y109.682 E0.01674
G1 X90.317 Y62.833 E2.07880
G1 X89.783 Y62.833 E0.01674
G1 X137.166 Y110.216 E2.10248
G1 X137.166 Y110.750 E0.01674
G1 X89.249 Y62.833 E2.12616
G1 X88.716 Y62.833 E0.01674
G1 X137.166 Y111.283 E2.14983
G1 X137.166 Y111.817 E0.01674
G1 X88.182 Y62.833 E2.17351
G1 X87.649 Y62.833 E0.01674
G1 X137.166 Y112.350 E2.19719
G1 X137.166 Y112.884 E0.01674
G1 X87.115 Y62.833 E2.22087
G1 X86.581 Y62.833 E0.01674
G1 X137.166 Y113.418 E2.24455
M73 P1 R229
G1 X137.166 Y113.951 E0.01674
G1 X86.048 Y62.833 E2.26823
G1 X85.514 Y62.833 E0.01674
G1 X137.166 Y114.485 E2.29190
G1 X137.166 Y115.019 E0.01674
G1 X84.980 Y62.833 E2.31558
M73 P2 R229
G1 X84.447 Y62.833 E0.01674
G1 X137.166 Y115.552 E2.33926
G1 X137.166 Y116.086 E0.01674
G1 X83.913 Y62.833 E2.36294
G1 X83.380 Y62.833 E0.01674
G1 X137.166 Y116.620 E2.38662
G1 X137.166 Y117.153 E0.01674
G1 X82.846 Y62.833 E2.41029
G1 X82.312 Y62.833 E0.01674
G1 X136.645 Y117.166 E2.41087
G1 X136.111 Y117.166 E0.01674
G1 X81.779 Y62.833 E2.41087
G1 X81.245 Y62.833 E0.01674
G1 X135.578 Y117.166 E2.41087
G1 X135.044 Y117.166 E0.01674
G1 X80.711 Y62.833 E2.41086
G1 X80.178 Y62.833 E0.01674
G1 X134.510 Y117.166 E2.41086
G1 X133.977 Y117.166 E0.01674
G1 X79.644 Y62.833 E2.41086
G1 X79.110 Y62.833 E0.01674
G1 X133.443 Y117.166 E2.41086
G1 X132.909 Y117.166 E0.01674
G1 X78.577 Y62.833 E2.41086
G1 X78.043 Y62.834 E0.01674
G1 X132.376 Y117.166 E2.41086
M73 P2 R228
G1 X131.842 Y117.166 E0.01674
G1 X77.510 Y62.834 E2.41086
G1 X76.976 Y62.834 E0.01674
G1 X131.309 Y117.166 E2.41086
G1 X130.775 Y117.166 E0.01674
G1 X76.442 Y62.834 E2.41086
G1 X75.909 Y62.834 E0.01674
G1 X130.241 Y117.166 E2.41086
G1 X129.708 Y117.166 E0.01674
G1 X75.375 Y62.834 E2.41086
G1 X74.841 Y62.834 E0.01674
G1 X129.174 Y117.166 E2.41086
G1 X128.640 Y117.166 E0.01674
G1 X74.308 Y62.834 E2.41086
G1 X73.774 Y62.834 E0.01674
G1 X128.107 Y117.166 E2.41086
G1 X127.573 Y117.166 E0.01674
G1 X73.241 Y62.834 E2.41086
G1 X72.707 Y62.834 E0.01674
G1 X127.039 Y117.166 E2.41086
G1 X126.506 Y117.166 E0.01674
G1 X72.173 Y62.834 E2.41085
G1 X71.640 Y62.834 E0.01674
G1 X125.972 Y117.166 E2.41085
G1 X125.438 Y117.166 E0.01674
G1 X71.106 Y62.834 E2.41085
G1 X70.572 Y62.834 E0.01674
G1 X124.905 Y117.166 E2.41085
G1 X124.371 Y117.166 E0.01674
G1 X70.039 Y62.834 E2.41085
M73 P2 R227
G1 X69.505 Y62.834 E0.01674
G1 X123.838 Y117.166 E2.41085
G1 X123.304 Y117.166 E0.01674
G1 X68.972 Y62.834 E2.41085
G1 X68.438 Y62.834 E0.01674
G1 X122.770 Y117.166 E2.41085
G1 X122.237 Y117.166 E0.01674
G1 X67.904 Y62.834 E2.41085
G1 X67.371 Y62.834 E0.01674
G1 X121.703 Y117.166 E2.41085
G1 X121.169 Y117.166 E0.01674
G1 X66.837 Y62.834 E2.41085
G1 X66.303 Y62.834 E0.01674
G1 X120.636 Y117.166 E2.41085
G1 X120.102 Y117.166 E0.01674
G1 X65.770 Y62.834 E2.41085
G1 X65.236 Y62.834 E0.01674
M73 P3 R227
G1 X119.568 Y117.166 E2.41085
G1 X119.035 Y117.166 E0.01674
G1 X64.703 Y62.834 E2.41085
G1 X64.169 Y62.834 E0.01674
G1 X118.501 Y117.166 E2.41085
G1 X117.967 Y117.166 E0.01674
G1 X63.635 Y62.834 E2.41084
G1 X63.102 Y62.834 E0.01674
G1 X117.434 Y117.166 E2.41084
G1 X116.900 Y117.166 E0.01674
G1 X62.568 Y62.834 E2.41084
G1 X62.034 Y62.834 E0.01674
G1 X116.367 Y117.166 E2.41084
G1 X115.833 Y117.166 E0.01674
G1 X61.501 Y62.834 E2.41084
M73 P3 R226
G1 X60.967 Y62.834 E0.01674
G1 X115.299 Y117.166 E2.41084
G1 X114.766 Y117.166 E0.01674
G1 X60.434 Y62.834 E2.41084
G1 X59.900 Y62.834 E0.01674
G1 X114.232 Y117.166 E2.41084
G1 X113.698 Y117.166 E0.01674
G1 X59.366 Y62.834 E2.41084
G1 X58.833 Y62.834 E0.01674
G1 X113.165 Y117.166 E2.41084
G1 X112.631 Y117.166 E0.01674
G1 X58.299 Y62.834 E2.41084
G1 X57.765 Y62.834 E0.01674
G1 X112.097 Y117.166 E2.41084
G1 X111.564 Y117.166 E0.01674
G1 X57.232 Y62.834 E2.41084
G1 X56.698 Y62.834 E0.01674
G1 X111.030 Y117.166 E2.41084
G1 X110.497 Y117.166 E0.01674
G1 X56.164 Y62.834 E2.41084
G1 X55.631 Y62.834 E0.01674
G1 X109.963 Y117.166 E2.41084
G1 X109.429 Y117.166 E0.01674
G1 X55.097 Y62.834 E2.41083
G1 X54.564 Y62.834 E0.01674
G1 X108.896 Y117.166 E2.41083
G1 X108.362 Y117.166 E0.01674
G1 X54.030 Y62.834 E2.41083
G1 X53.496 Y62.834 E0.01674
G1 X107.828 Y117.166 E2.41083
M73 P3 R225
G1 X107.295 Y117.166 E0.01674
G1 X52.963 Y62.834 E2.41083
G1 X52.429 Y62.834 E0.01674
G1 X106.761 Y117.166 E2.41083
G1 X106.227 Y117.166 E0.01674
G1 X51.895 Y62.834 E2.41083
G1 X51.362 Y62.834 E0.01674
G1 X105.694 Y117.166 E2.41083
G1 X105.160 Y117.166 E0.01674
G1 X50.828 Y62.834 E2.41083
G1 X50.295 Y62.834 E0.01674
G1 X104.626 Y117.166 E2.41083
G1 X104.093 Y117.166 E0.01674
G1 X49.761 Y62.834 E2.41083
G1 X49.227 Y62.834 E0.01674
G1 X103.559 Y117.166 E2.41083
G1 X103.026 Y117.166 E0.01674
G1 X48.694 Y62.834 E2.41083
G1 X48.160 Y62.834 E0.01674
G1 X102.492 Y117.166 E2.41083
G1 X101.958 Y117.166 E0.01674
G1 X47.626 Y62.834 E2.41083
G1 X47.093 Y62.834 E0.01674
G1 X101.425 Y117.166 E2.41082
G1 X100.891 Y117.166 E0.01674
G1 X46.559 Y62.834 E2.41082
G1 X46.026 Y62.834 E0.01674
G1 X100.357 Y117.166 E2.41082
M73 P4 R225
G1 X99.824 Y117.166 E0.01674
G1 X45.492 Y62.834 E2.41082
G1 X44.958 Y62.834 E0.01674
G1 X99.290 Y117.166 E2.41082
M73 P4 R224
G1 X98.756 Y117.166 E0.01674
G1 X44.425 Y62.834 E2.41082
G1 X43.891 Y62.834 E0.01674
G1 X98.223 Y117.166 E2.41082
G1 X97.689 Y117.166 E0.01674
G1 X43.357 Y62.834 E2.41082
G1 X42.832 Y62.842 E0.01650
G1 X97.155 Y117.166 E2.41047
G1 X96.622 Y117.166 E0.01674
G1 X42.832 Y63.376 E2.38679
G1 X42.832 Y63.910 E0.01674
G1 X96.088 Y117.166 E2.36311
G1 X95.555 Y117.166 E0.01674
G1 X42.832 Y64.443 E2.33943
G1 X42.832 Y64.977 E0.01674
G1 X95.021 Y117.166 E2.31575
G1 X94.487 Y117.166 E0.01674
G1 X42.832 Y65.511 E2.29207
G1 X42.832 Y66.044 E0.01674
G1 X93.954 Y117.166 E2.26839
G1 X93.420 Y117.166 E0.01674
G1 X42.832 Y66.578 E2.24471
G1 X42.832 Y67.112 E0.01674
G1 X92.886 Y117.166 E2.22103
G1 X92.353 Y117.166 E0.01674
G1 X42.832 Y67.645 E2.19735
G1 X42.832 Y68.179 E0.01674
G1 X91.819 Y117.166 E2.17367
G1 X91.285 Y117.166 E0.01674
G1 X42.832 Y68.713 E2.14999
G1 X42.832 Y69.246 E0.01674
G1 X90.752 Y117.166 E2.12631
M73 P4 R223
G1 X90.218 Y117.166 E0.01674
G1 X42.832 Y69.780 E2.10263
G1 X42.832 Y70.314 E0.01674
G1 X89.684 Y117.166 E2.07895
G1 X89.151 Y117.166 E0.01674
G1 X42.832 Y70.847 E2.05527
G1 X42.832 Y71.381 E0.01674
G1 X88.617 Y117.166 E2.03159
G1 X88.084 Y117.166 E0.01674
G1 X42.832 Y71.915 E2.00791
G1 X42.832 Y72.448 E0.01674
G1 X87.550 Y117.166 E1.98423
G1 X87.016 Y117.166 E0.01674
G1 X42.832 Y72.982 E1.96055
G1 X42.832 Y73.516 E0.01674
G1 X86.483 Y117.166 E1.93687
G1 X85.949 Y117.166 E0.01674
G1 X42.832 Y74.049 E1.91319
G1 X42.832 Y74.583 E0.01674
G1 X85.415 Y117.166 E1.88951
G1 X84.882 Y117.166 E0.01674
G1 X42.832 Y75.117 E1.86583
G1 X42.832 Y75.650 E0.01674
G1 X84.348 Y117.166 E1.84215
G1 X83.814 Y117.166 E0.01674
G1 X42.832 Y76.184 E1.81847
G1 X42.832 Y76.717 E0.01674
G1 X83.281 Y117.166 E1.79479
